X: 4
T: The Road To Garrison
R: reel
M: 4/4
L: 1/8
K: Dmaj
|:A3B A2FA | BFAF egfe | dA A2 FAAF | GEAG FADF |
A3B A2FA | BFAF egfe | dB B2 A2dB |1 AFEG FDE/F/G :|2 AFEG FDDA ||
|: d3f af f2 | fabf afef | df f2 Adfa | bfaf egfe |
defg af f2 | fgeg fedB | A3B A2dB |1 AFEG FDDA :|2 AFEG FDE/F/G ||


Tune 2698	Setting 25024

